X: 1
T: Morrowind Theme
C: Jeremy Soule
S: https://musescore.com/user/26252466/scores/4714961
M: 3/4
L: 1/8
Q: 1/4=90
K: Eb
|: (CD E4) | EF G4 | GB F4- | FG/F/ ED C4 |
| CD E4 | EF G4 | GB c4 | B3/d/ c4 |
| (cd e2 d2 | c2 B2 A2 | G2 F4) | EG F4 | ED C4 :|
